svg/part/scarf_fill.svg

<?xml version="1.0" encoding="UTF-8"?>
<svg width="24px" height="24px" viewBox="0 0 24 24" version="1.1" xmlns="http://www.w3.org/2000/svg" xmlns:xlink="http://www.w3.org/1999/xlink">
    <title>scarf_fill</title>
    <g id="Icon" stroke="none" stroke-width="1" fill="none" fill-rule="evenodd">
        <g id="Part" transform="translate(-384.000000, -144.000000)" fill-rule="nonzero">
            <g id="scarf_fill" transform="translate(384.000000, 144.000000)">
                <path d="M24,0 L24,24 L0,24 L0,0 L24,0 Z M12.5934901,23.257841 L12.5819402,23.2595131 L12.5108777,23.2950439 L12.4918791,23.2987469 L12.4918791,23.2987469 L12.4767152,23.2950439 L12.4056548,23.2595131 C12.3958229,23.2563662 12.3870493,23.2590235 12.3821421,23.2649074 L12.3780323,23.275831 L12.360941,23.7031097 L12.3658947,23.7234994 L12.3769048,23.7357139 L12.4804777,23.8096931 L12.4953491,23.8136134 L12.4953491,23.8136134 L12.5071152,23.8096931 L12.6106902,23.7357139 L12.6232938,23.7196733 L12.6232938,23.7196733 L12.6266527,23.7031097 L12.609561,23.275831 C12.6075724,23.2657013 12.6010112,23.2592993 12.5934901,23.257841 L12.5934901,23.257841 Z M12.8583906,23.1452862 L12.8445485,23.1473072 L12.6598443,23.2396597 L12.6498822,23.2499052 L12.6498822,23.2499052 L12.6471943,23.2611114 L12.6650943,23.6906389 L12.6699349,23.7034178 L12.6699349,23.7034178 L12.678386,23.7104931 L12.8793402,23.8032389 C12.8914285,23.8068999 12.9022333,23.8029875 12.9078286,23.7952264 L12.9118235,23.7811639 L12.8776777,23.1665331 C12.8752882,23.1545897 12.8674102,23.1470016 12.8583906,23.1452862 L12.8583906,23.1452862 Z M12.1430473,23.1473072 C12.1332178,23.1423925 12.1221763,23.1452606 12.1156365,23.1525954 L12.1099173,23.1665331 L12.0757714,23.7811639 C12.0751323,23.7926639 12.0828099,23.8018602 12.0926481,23.8045676 L12.108256,23.8032389 L12.3092106,23.7104931 L12.3186497,23.7024347 L12.3186497,23.7024347 L12.3225043,23.6906389 L12.340401,23.2611114 L12.337245,23.2485176 L12.337245,23.2485176 L12.3277531,23.2396597 L12.1430473,23.1473072 Z" id="MingCute"></path>
                <path d="M8.82836875,3 C8.03272,3 7.26966,3.31607 6.70705,3.87868 L3.70705,6.87868 C2.53547,8.05026 2.53548,9.94975 3.70705,11.1213 L5.17217,12.5864 C5.5627,12.977 6.19586,12.977 6.58639,12.5864 L10.5864,8.58644 C10.9769,8.19592 10.9769,7.56276 10.5864,7.17223 L8.47767,5.06351 C8.58877,5.0219 8.70744,5 8.82836875,5 L15.1715,5 C15.2924,5 15.4111,5.0219 15.5222,5.06351 L8.29283,12.2928 C7.53963,13.046 7.16589,14.035 7.17158,15.0222 C7.17368,15.3867 7.22752,15.751 7.33309,16.1031 C7.50915,16.6902 7.82906,17.2433 8.29284,17.7071 C9.14073,18.555 10.2874,18.922 11.394,18.8082 L12.7928,20.2071 C13.1834,20.5976 13.8165,20.5976 14.207,20.2071 C14.5976,19.8166 14.5976,19.1834 14.207,18.7929 L13.3985,17.9843 C13.5051,17.8985 13.6081,17.8061 13.7071,17.7071 L13.9999,17.4142 L15.2928,18.7071 C15.6834,19.0976 16.3165,19.0976 16.707,18.7071 C17.0976,18.3166 17.0976,17.6834 16.707,17.2929 L15.4142,16 L15.9999,15.4142 L17.7928,17.2071 C18.1834,17.5976 18.8165,17.5976 19.2071,17.2071 C19.5976,16.8166 19.5976,16.1834 19.2071,15.7929 L17.4142,14 L20.2928,11.1213 C21.4644,9.94975 21.4644,8.05026 20.2928,6.87868 L17.2928,3.87868 C16.7302,3.31607 15.9672,3 15.1715,3 L8.82836875,3 Z" id="路径" fill="#09244B"></path>
            </g>
        </g>
    </g>
</svg>

<svg xmlns="http://www.w3.org/2000/svg" width="24" height="24"><g fill="none" fill-rule="nonzero"><path d="M24 0v24H0V0h24ZM12.593 23.258l-.011.002-.071.035-.02.004-.014-.004-.071-.035c-.01-.004-.019-.001-.024.005l-.004.01-.017.428.005.02.01.013.104.074.015.004.012-.004.104-.074.012-.016.004-.017-.017-.427c-.002-.01-.009-.017-.017-.018Zm.265-.113-.013.002-.185.093-.01.01-.003.011.018.43.005.012.008.007.201.093c.012.004.023 0 .029-.008l.004-.014-.034-.614c-.003-.012-.01-.02-.02-.022Zm-.715.002a.023.023 0 0 0-.027.006l-.006.014-.034.614c0 .012.007.02.017.024l.015-.002.201-.093.01-.008.004-.011.017-.43-.003-.012-.01-.01-.184-.092Z"/><path fill="#09244B" d="M8.828 3a3 3 0 0 0-2.12.879l-3.001 3a3 3 0 0 0 0 4.242l1.465 1.465a1 1 0 0 0 1.414 0l4-4a1 1 0 0 0 0-1.414L8.478 5.064A1 1 0 0 1 8.828 5h6.344a1 1 0 0 1 .35.064l-7.23 7.229a3.817 3.817 0 0 0-1.12 2.73 3.812 3.812 0 0 0 1.121 2.685 3.821 3.821 0 0 0 3.101 1.1l1.399 1.4a1 1 0 0 0 1.414-1.415l-.809-.809c.107-.086.21-.178.31-.277l.292-.293 1.293 1.293a1 1 0 0 0 1.414-1.414L15.414 16l.586-.586 1.793 1.793a1 1 0 0 0 1.414-1.414L17.414 14l2.879-2.879a3 3 0 0 0 0-4.242l-3-3A3 3 0 0 0 15.172 3H8.828Z"/></g></svg>
